packages/calcite-ui-icons/icons/user-risk-16.svg

<?xml version="1.0" encoding="UTF-8"?><svg id="icons" xmlns="http://www.w3.org/2000/svg" viewBox="0 0 16 16"><defs><style>.cls-1{fill:none;}</style></defs><path d="M4.5,8c-1.92999,0-3.5,1.57001-3.5,3.5v3.5h2.71002c.0235-.36503.08554-.65646.28597-1h-1.99599v-2.5c0-1.38,1.12-2.5,2.5-2.5h2.32001l.56-1h-2.88ZM6,6.8c-1.54401,0-2.8-1.25599-2.8-2.8s1.25599-2.8,2.8-2.8,2.8,1.25599,2.8,2.8-1.25599,2.8-2.8,2.8ZM6,2.13333c-1.02949,0-1.86667.83717-1.86667,1.86667s.83717,1.86667,1.86667,1.86667,1.86667-.83717,1.86667-1.86667-.83717-1.86667-1.86667-1.86667ZM15.03027,16H5.96973c-.59423,0-.96499-.6407-.67822-1.15332l4.52979-8.15527c.27344-.49219,1.08398-.49219,1.35742,0l4.53027,8.15527c.28678.51452-.08673,1.15332-.67871,1.15332ZM6.3501,15h8.2998l-4.1499-7.4707-4.1499,7.4707ZM11,12h-1v-2h1v2ZM11,14h-1v-1h1v1Z"/><rect class="cls-1" width="16" height="16"/></svg>

<svg xmlns="http://www.w3.org/2000/svg" viewBox="0 0 16 16"><path d="M4.5 8C2.57 8 1 9.57 1 11.5V15h2.71c.024-.365.086-.656.286-1H2v-2.5A2.5 2.5 0 0 1 4.5 9h2.32l.56-1H4.5zM6 6.8C4.456 6.8 3.2 5.544 3.2 4S4.456 1.2 6 1.2 8.8 2.456 8.8 4 7.544 6.8 6 6.8zm0-4.667c-1.03 0-1.867.837-1.867 1.867S4.97 5.867 6 5.867 7.867 5.03 7.867 4 7.03 2.133 6 2.133zM15.03 16H5.97a.777.777 0 0 1-.678-1.153l4.53-8.156c.273-.492 1.083-.492 1.357 0l4.53 8.156A.777.777 0 0 1 15.03 16zm-8.68-1h8.3L10.5 7.53 6.35 15zM11 12h-1v-2h1v2zm0 2h-1v-1h1v1z"/><path fill="none" d="M0 0h16v16H0z"/></svg>
